!!!COM: Palestrina, Giovanni Perluigi da
!!!OPR: Aeterna Christi munera
!!!OTL: Kyrie
**kern	**kern	**kern	**kern
*Ibass	*Itenor	*Icalto	*Icant
!Bassus	!Tenor	!Altus	!Cantus
*clefF4	*clefGv2	*clefG2	*clefG2
*k[b-]	*k[b-]	*k[b-]	*k[b-]
*F:ion	*F:ion	*F:ion	*F:ion
*M4/2	*M4/2	*M4/2	*M4/2
=1	=1	=1	=1
0r	1F	1r	0r
.	2F	1c	.
.	2G	.	.
=2	=2	=2	=2
0r	2A	2c	1r
.	2F	2d	.
.	2G	2e	2r
.	2A	2c	2f
=3	=3	=3	=3
0r	2B-	2d	2f
.	2G	2e	2g
.	2F	2f	2a
.	[2f	2d	2f
=4	=4	=4	=4
0r	2f]	1c	2g
.	2e	.	2a
.	4d	4G	[1b-
.	4c	4A	.
.	4B-	4B-	.
.	4A	4c	.
=5	=5	=5	=5
0r	2G	4d	2b-]
.	.	4e	.
.	2F	1f	2a
.	[1c	.	1g
.	.	2e	.
=6	=6	=6	=6
1F	1c]	2f	2a
.	.	1a	1cc
2F	1d	.	.
2G	.	4g	2b
.	.	4f	.
=7	=7	=7	=7
2A	2c	2e	1cc
2F	2f	2a	.
2G	2e	2g	1r
2A	2c	[2f	.
=8	=8	=8	=8
2.B-	2.d	2f]	1f
.	.	2d	.
8A	8c	.	.
8G	8B-	.	.
2F	2A	2r	2f
2E	2G	2c	2g
=9	=9	=9	=9
2F	1F	2c	2a
2D	.	2d	2f
2C	2r	2e	2g
2F	2F	2c	2a
=10	=10	=10	=10
2D	2F	2d	2b-
2C	2G	2e	1cc
2F	2A	[1f	.
2D	2F	.	2b
=11	=11	=11	=11
1C	2G	2f]	1cc
.	2A	2e	.
1BB-	[1B-	1d	2f
.	.	.	[2g
=12	=12	=12	=12
0C	2B-]	[0c	2g]
.	2A	.	1f
.	1G	.	.
.	.	.	2e
=13	=13	=13	=13
0F	0F	0c]	0f
=14	=14	=14	=14
0r	0r	1B-	1r
.	.	2.d	1f
.	.	4e	.
=15	=15	=15	=15
0r	1F	0f	2.a
.	.	.	4b-
.	2A	.	2cc
.	2B-	.	[2dd
=16	=16	=16	=16
0r	1c	1e	4dd]
.	.	.	4cc
.	.	.	1cc
.	1d	2.f	.
.	.	.	2b
.	.	4g	.
=17	=17	=17	=17
1F	1c	1.a	1.cc
2A	1r	.	.
2B-	.	4g	4b-
.	.	4f	4a
=18	=18	=18	=18
1c	0r	2e	2g
.	.	2.g	2cc
1d	.	.	4b-
.	.	4f	4a
.	.	[2f	4a
.	.	.	8g
.	.	.	8f
=19	=19	=19	=19
2.c	1r	2f]	2g
.	.	2e	2.cc
4B-	.	.	.
4A	1F	1f	.
4G	.	.	4b-
4F	.	.	4a
4E	.	.	4g
=20	=20	=20	=20
2D	2.A	2r	2f
2F	.	2c	2a
.	4B-	.	.
2E	2c	2e	2g
2D	[2d	2f	2f
=21	=21	=21	=21
2E	4d]	2g	1e
.	4c	.	.
2F	1c	2.a	.
1G	.	.	1d
.	.	4g	.
.	2B	[2g	.
=22	=22	=22	=22
1A	0c	2g]	2r
.	.	2f#	2c
2r	.	[1g	2.e
2C	.	.	.
.	.	.	4f
=23	=23	=23	=23
2E	2r	2g]	2g
2F	1c	2f	2.a
1G	.	2e	.
.	.	.	4g
.	2B	[2d	[2g
=24	=24	=24	=24
1A	1c	4d]	2g]
.	.	4c	.
.	.	1c	2f#
1G	1d	.	1g
.	.	2B	.
=25	=25	=25	=25
1.F	2f	1c	1a
.	2F	.	.
.	2A	2r	1f
2D	2B-	2F	.
=26	=26	=26	=26
2E	1c	2G	1r
2F	.	2A	.
4BB-	1d	1B-	2r
4C	.	.	.
4D	.	.	2f
4E	.	.	.
=27	=27	=27	=27
2F	4c	2A	2.a
.	4B-	.	.
2F	4A	1f	.
.	4G	.	4b-
2A	2F	.	2cc
2B-	2f	2d	[2dd
=28	=28	=28	=28
2c	2e	2e	4dd]
.	.	.	4cc
2A	2c	2f	1cc
1G	1d	1g	.
.	.	.	2b
=29	=29	=29	=29
0C	0c	0e	0cc
=30	=30	=30	=30
0r	0r	2.c	0r
.	.	4d	.
.	.	4e	.
.	.	4f	.
.	.	4g	.
.	.	4e	.
=31	=31	=31	=31
0r	2.F	1.f	1cc
.	4G	.	.
.	4A	.	2cc
.	4B-	.	.
.	4c	2e	2cc
.	4A	.	.
=32	=32	=32	=32
0r	1B-	2d	1.dd
.	.	4B-	.
.	.	4c	.
.	2B-	4d	.
.	.	4e	.
.	2A	4f	2cc
.	.	4e	.
=33	=33	=33	=33
0r	2G	2g	2b-
.	2A	1f	2a
.	1c	.	1g
.	.	2e	.
=34	=34	=34	=34
2.F	2r	1f	0a
.	2c	.	.
4G	.	.	.
4A	2c	1r	.
4B-	.	.	.
4c	2c	.	.
4A	.	.	.
=35	=35	=35	=35
2.B-	2.d	2r	0r
.	.	2f	.
4c	4c	.	.
2d	2B-	2f	.
[2c	2A	2f	.
=36	=36	=36	=36
2c]	1G	2.g	2r
2B	.	.	2g
.	.	4f	.
1c	1r	4e	2g
.	.	4d	.
.	.	2e	2g
=37	=37	=37	=37
0r	2.F	1.f	1.a
.	4G	.	.
.	4A	.	.
.	4B-	.	.
.	4c	2e	2g
.	4G	.	.
=38	=38	=38	=38
0r	2B-	2d	2f
.	2c	1c	2e
.	1G	.	1d
.	.	2B	.
=39	=39	=39	=39
1c	0r	4c	2e
.	.	4d	.
.	.	4e	4c
.	.	4f	4d
2c	.	1g	4e
.	.	.	4f
2c	.	.	4g
.	.	.	4e
=40	=40	=40	=40
1.d	0r	2r	2.f
.	.	4d	.
.	.	4e	4g
.	.	4f	4a
.	.	4g	4b-
2c	.	2a	4cc
.	.	.	4a
=41	=41	=41	=41
2B-	0r	4g	2dd
.	.	4f	.
2A	.	1f	2cc
1G	.	.	1b-
.	.	2e	.
=42	=42	=42	=42
0F	1c	[0f	2a
.	.	.	4f
.	.	.	4g
.	2c	.	4a
.	.	.	4b-
.	2c	.	4cc
.	.	.	4a
=43	=43	=43	=43
2.BB-	1.d	0f]	1.b-
4C	.	.	.
4D	.	.	.
4E	.	.	.
2F	2c	.	2a
=44	=44	=44	=44
1BB-	2B-	1d	2g
.	2A	.	1f
1C	1G	1c	.
.	.	.	2e
=45	=45	=45	=45
0F	0F	0c	0f
==	==	==	==
*-	*-	*-	*-
!!!CDT: 1525/^1526/-1594/2/2
!!!OCY: Italia
!!!AGN: Mass (Paraphrase)
!!!AST: renaissance, vocal
!!!ASW: Hymn
!!!PWK: Masses, Book 5
!!!RNB: Cadence finals: C
!!!YOR: Le Opere Complete, v. 15, p. 1
!!!YOO: Rome, Italy: Fratelli Scalera
!!!END: 1992//
!!!EED: John Miller
!!!YEC: Copyright 2000, John Miller
!!!YEN: United States of America
!!!YEM: Rights to all derivative electronic formats reserved.
!!!YEM: Refer to licensing agreement for further details.
!!!YEM: This file must be accompanied by the licensing agreement.
!!!YEM: A copy of the licensing agreement may be found at http://www.music-cog.ohio-state.edu/HumdrumDatabases/Palestrina/license.txt
!!!EMD: converted to Humdrum by Bret Aarden
